public/icon-alacritty.svg

<?xml version="1.0" encoding="UTF-8" standalone="no"?>
<svg clip-rule="evenodd" enable-background="new" fill-rule="evenodd" height="57.078659" stroke-linejoin="round" stroke-miterlimit="1.41421" viewBox="0 0 64 57.078659" width="64" xmlns="http://www.w3.org/2000/svg" xmlns:xlink="http://www.w3.org/1999/xlink"><linearGradient id="a" gradientTransform="matrix(.95039318 0 0 .91400987 29.942531 -23.16114)" gradientUnits="userSpaceOnUse" x1="19.0625" x2="19" xlink:href="#b" y1="0" y2="43.25"/><linearGradient id="b" gradientTransform="matrix(0 473.895 -473.895 0 547.884 192.222)" gradientUnits="userSpaceOnUse" x1=".025172" x2="1" y1=".07949" y2="0"><stop offset="0" stop-color="#ec2802"/><stop offset="1" stop-color="#fcb200"/></linearGradient><linearGradient id="c"><stop offset="0" stop-color="#aaa"/><stop offset="1" stop-color="#424242"/></linearGradient><clipPath id="d"><path clip-rule="evenodd" d="m14.813062 26.75 4.186938-10.805 4.186938 10.805-4.186938 16.5z"/></clipPath><linearGradient id="e" gradientTransform="matrix(.84565151 0 0 .82216743 6.563578 -53.720791)" gradientUnits="userSpaceOnUse" x1="48.747543" x2="48.747543" xlink:href="#c" y1="2.538" y2="59.381035"/><linearGradient id="f" gradientTransform="matrix(.95578689 0 0 1.0103945 .41875 -.764878)" gradientUnits="userSpaceOnUse" x1="35.337124" x2="35.337124" y1="1.320608" y2="-2.412214"><stop offset="0"/><stop offset="1" stop-opacity="0"/></linearGradient><filter id="g" color-interpolation-filters="sRGB" height="1.148479" width="1.192399" x="-.096199" y="-.074239"><feGaussianBlur stdDeviation="1.0020779"/></filter><linearGradient id="h" gradientTransform="matrix(.95578689 0 0 1.0103945 .41875 -.764878)" gradientUnits="userSpaceOnUse" x1="2.573907" x2="63.510384" xlink:href="#b" y1="-.589208" y2="-.589208"/><filter id="i" color-interpolation-filters="sRGB" height="1.112523" width="1.128542" x="-.064271" y="-.056261"><feGaussianBlur stdDeviation=".9671398"/></filter><linearGradient id="j" gradientTransform="matrix(.96969697 0 0 .95131275 .484848 -1.184313)" gradientUnits="userSpaceOnUse" x1="48.747543" x2="48.747543" xlink:href="#c" y1="2.538" y2="59.381035"/><filter id="k" color-interpolation-filters="sRGB" height="1.018523" width="1.01537" x="-.007685" y="-.009261"><feGaussianBlur stdDeviation=".1698072"/></filter><filter id="l" color-interpolation-filters="sRGB" height="1.015753" width="1.017996" x="-.008998" y="-.007877"><feGaussianBlur stdDeviation=".13539957"/></filter><g stroke-width=".982712" transform="translate(0 4.39954)"><rect fill="url(#h)" height="6.078658" rx="2.072683" ry="2.105791" width="58.242287" x="2.878857" y="-4.39954"/><rect fill="url(#f)" height="6.078658" opacity=".5" rx="2.072683" ry="2.105791" width="58.242287" x="2.878857" y="-4.39954"/></g><g transform="translate(-16 1.86154)"><rect fill="#dedede" height="54.297054" rx="3.406781" ry="3.442168" width="64" x="16" y=".720064"/><rect fill="url(#j)" height="53.987" rx="3.406781" ry="3.422512" width="64" x="16" y="1.230119"/><rect fill="url(#e)" height="46.658001" rx="1.642672" ry="1.654344" transform="scale(1 -1)" width="55.813" x="20.094" y="-51.634117"/></g><g transform="translate(0 -2.921342)"><rect height="45.61607" rx="1.530655" width="55.226368" x="4.386816" y="10.258932"/><path d="m5.545111 11.215664h52.909779v43.702606h-52.909779z" fill="#14232b"/></g><g clip-rule="evenodd" fill-rule="evenodd" filter="url(#l)" transform="translate(-16 32.899297)"><path d="m44.994167 1.199154-.943097 2.2850435c2.534198 7.8035565 2.534198 7.8035565 3.94893 14.6109055 1.414732-6.807349 1.414732-6.807349 3.94893-14.6109055l-.943097-2.2850435-3.005833-7.2828863z" fill="#069efe"/><path d="m44.673625-23.161141h6.65275l14.731095 36.560391h-6.177556l-11.879914-27.923714-11.879914 27.923714h-6.177556z" fill="url(#a)"/><path clip-path="url(#d)" d="m19 32.395 12.5-32.395-25 .13313911z" fill="#fff" filter="url(#g)" transform="matrix(.94315461 0 0 .90704843 30.080063 -20.546611)"/></g><g clip-rule="evenodd" fill-rule="evenodd" filter="url(#i)" transform="translate(-16 32.899297)"><path d="m44.994167 1.199154-.943097 2.2850435c2.534198 7.8035565 2.534198 7.8035565 3.94893 14.6109055 1.414732-6.807349 1.414732-6.807349 3.94893-14.6109055l-.943097-2.2850435-3.005833-7.2828863z" fill="#069efe"/><path d="m44.673625-23.161141h6.65275l14.731095 36.560391h-6.177556l-11.879914-27.923714-11.879914 27.923714h-6.177556z" fill="url(#a)"/><path clip-path="url(#d)" d="m19 32.395 12.5-32.395-25 .13313911z" fill="#fff" filter="url(#g)" transform="matrix(.94315461 0 0 .90704843 30.080063 -20.546611)"/></g><g style="opacity:.75;fill:none;stroke:#000;stroke-width:.25;stroke-linejoin:miter;stroke-miterlimit:1.41421;filter:url(#k)" transform="translate(-16 1.86154)"><path d="m21.485704 29.433218h53.028692"/><path d="m21.485704 44.834618h53.028692"/><path d="m21.485704 32.733518h53.028692"/><path d="m21.485704 39.334118h53.028692"/><path d="m21.485704 7.4312225h53.028692"/><path d="m21.485704 33.833618h53.028692"/><path d="m21.485704 22.832618h53.028692"/><path d="m21.485704 14.031818h53.028692"/><path d="m21.485704 25.032818h53.028692"/><path d="m21.485704 11.831618h53.028692"/><path d="m21.485704 47.034818h53.028692"/><path d="m21.485704 48.134918h53.028692"/><path d="m21.485704 28.333118h53.028692"/><path d="m21.485704 26.132918h53.028692"/><path d="m21.485704 27.233018h53.028692"/><path d="m21.485704 23.932718h53.028692"/><path d="m21.485704 45.934718h53.028692"/><path d="m21.485704 9.6314225h53.028692"/><path d="m21.485704 10.73152h53.028692"/><path d="m21.485704 12.931718h53.028692"/><path d="m21.485704 37.133918h53.028692"/><path d="m21.485704 38.234018h53.028692"/><path d="m21.485704 43.734518h53.028692"/><path d="m21.485704 17.332118h53.028692"/><path d="m21.485704 40.434218h53.028692"/><path d="m21.485704 41.534318h53.028692"/><path d="m21.485704 6.3311225h53.028692"/><path d="m21.485704 30.533318h53.028692"/><path d="m21.485704 31.633418h53.028692"/><path d="m21.485704 49.235018h53.028692"/><path d="m21.485704 16.232018h53.028692"/><path d="m21.485704 15.131918h53.028692"/><path d="m21.485704 36.033818h53.028692"/><path d="m21.485704 50.335118h53.028692"/><path d="m21.485704 20.632418h53.028692"/><path d="m21.485704 21.732518h53.028692"/><path d="m21.485704 42.634418h53.028692"/><path d="m21.485704 18.432218h53.028692"/><path d="m21.485704 19.532318h53.028692"/><path d="m21.485704 34.933718h53.028692"/><path d="m21.485704 8.5313225h53.028692"/></g></svg>

<?xml version="1.0" encoding="UTF-8" standalone="no"?>
<svg
   xmlns:dc="http://purl.org/dc/elements/1.1/"
   xmlns:cc="http://creativecommons.org/ns#"
   xmlns:rdf="http://www.w3.org/1999/02/22-rdf-syntax-ns#"
   xmlns:svg="http://www.w3.org/2000/svg"
   xmlns="http://www.w3.org/2000/svg"
   xmlns:xlink="http://www.w3.org/1999/xlink"
   xmlns:sodipodi="http://sodipodi.sourceforge.net/DTD/sodipodi-0.dtd"
   xmlns:inkscape="http://www.inkscape.org/namespaces/inkscape"
   width="192"
   height="192"
   version="1.1"
   viewBox="0 0 192 192"
   id="svg14"
   sodipodi:docname="icon-alacritty.svg"
   inkscape:version="0.92.4 (5da689c313, 2019-01-14)">
  <metadata
     id="metadata20">
    <rdf:RDF>
      <cc:Work
         rdf:about="">
        <dc:format>image/svg+xml</dc:format>
        <dc:type
           rdf:resource="http://purl.org/dc/dcmitype/StillImage" />
        <dc:title></dc:title>
      </cc:Work>
    </rdf:RDF>
  </metadata>
  <defs
     id="defs18">
    <linearGradient
       id="h"
       gradientTransform="matrix(0.95578689,0,0,1.0103945,0.41875,-0.764878)"
       gradientUnits="userSpaceOnUse"
       x1="2.5739069"
       x2="63.510384"
       xlink:href="#b"
       y1="-0.58920801"
       y2="-0.58920801" />
    <linearGradient
       id="b"
       gradientTransform="matrix(0,473.895,-473.895,0,547.884,192.222)"
       gradientUnits="userSpaceOnUse"
       x1="0.025172001"
       x2="1"
       y1="0.079489999"
       y2="0">
      <stop
         offset="0"
         stop-color="#ec2802"
         id="stop3" />
      <stop
         offset="1"
         stop-color="#fcb200"
         id="stop5" />
    </linearGradient>
    <linearGradient
       id="f"
       gradientTransform="matrix(0.95578689,0,0,1.0103945,0.41875,-0.764878)"
       gradientUnits="userSpaceOnUse"
       x1="35.337124"
       x2="35.337124"
       y1="1.320608"
       y2="-2.412214">
      <stop
         offset="0"
         id="stop17" />
      <stop
         offset="1"
         stop-opacity="0"
         id="stop19" />
    </linearGradient>
    <linearGradient
       id="j"
       gradientTransform="matrix(0.96969697,0,0,0.95131275,0.484848,-1.184313)"
       gradientUnits="userSpaceOnUse"
       x1="48.747543"
       x2="48.747543"
       xlink:href="#c"
       y1="2.5380001"
       y2="59.381035" />
    <linearGradient
       id="c">
      <stop
         offset="0"
         stop-color="#aaa"
         id="stop8" />
      <stop
         offset="1"
         stop-color="#424242"
         id="stop10" />
    </linearGradient>
    <linearGradient
       id="e"
       gradientTransform="matrix(0.84565151,0,0,0.82216743,6.563578,-53.720791)"
       gradientUnits="userSpaceOnUse"
       x1="48.747543"
       x2="48.747543"
       xlink:href="#c"
       y1="2.5380001"
       y2="59.381035" />
    <filter
       style="color-interpolation-filters:sRGB"
       id="l"
       height="1.015753"
       width="1.017996"
       x="-0.0089980001"
       y="-0.0078769997">
      <feGaussianBlur
         stdDeviation=".13539957"
         id="feGaussianBlur33" />
    </filter>
    <linearGradient
       id="a"
       gradientTransform="matrix(0.95039318,0,0,0.91400987,29.942531,-23.16114)"
       gradientUnits="userSpaceOnUse"
       x1="19.0625"
       x2="19"
       xlink:href="#b"
       y1="0"
       y2="43.25" />
    <clipPath
       id="d">
      <path
         style="clip-rule:evenodd"
         inkscape:connector-curvature="0"
         d="M 14.813062,26.75 19,15.945 23.186938,26.75 19,43.25 Z"
         id="path13" />
    </clipPath>
    <filter
       style="color-interpolation-filters:sRGB"
       id="g"
       height="1.148479"
       width="1.192399"
       x="-0.096198998"
       y="-0.074239001">
      <feGaussianBlur
         stdDeviation="1.0020779"
         id="feGaussianBlur22" />
    </filter>
    <filter
       style="color-interpolation-filters:sRGB"
       id="i"
       height="1.112523"
       width="1.1285419"
       x="-0.064271003"
       y="-0.056260999">
      <feGaussianBlur
         stdDeviation=".9671398"
         id="feGaussianBlur26" />
    </filter>
    <clipPath
       id="clipPath1020">
      <path
         style="clip-rule:evenodd"
         inkscape:connector-curvature="0"
         d="M 14.813062,26.75 19,15.945 23.186938,26.75 19,43.25 Z"
         id="path1018" />
    </clipPath>
    <filter
       style="color-interpolation-filters:sRGB"
       id="filter1024"
       height="1.148479"
       width="1.192399"
       x="-0.096198998"
       y="-0.074239001">
      <feGaussianBlur
         stdDeviation="1.0020779"
         id="feGaussianBlur1022" />
    </filter>
    <filter
       style="color-interpolation-filters:sRGB"
       id="k"
       height="1.018523"
       width="1.01537"
       x="-0.0076850001"
       y="-0.009261">
      <feGaussianBlur
         stdDeviation=".1698072"
         id="feGaussianBlur30" />
    </filter>
  </defs>
  <sodipodi:namedview
     pagecolor="#ffffff"
     bordercolor="#666666"
     borderopacity="1"
     objecttolerance="10"
     gridtolerance="10"
     guidetolerance="10"
     inkscape:pageopacity="0"
     inkscape:pageshadow="2"
     inkscape:window-width="2560"
     inkscape:window-height="1377"
     id="namedview16"
     showgrid="false"
     inkscape:zoom="1.7383042"
     inkscape:cx="-49.868314"
     inkscape:cy="168.68443"
     inkscape:window-x="1912"
     inkscape:window-y="-8"
     inkscape:window-maximized="1"
     inkscape:current-layer="svg14" />
  <rect
     style="opacity:1;fill:#7fbbb3;stroke:none;fill-opacity:1"
     id="rect2"
     rx="10"
     height="153"
     width="153"
     y="19.5"
     x="19.5" />
  <path
     id="path56"
     d="M 44.994167,1.199154 44.05107,3.4841975 C 46.585268,11.287754 46.585268,11.287754 48,18.095103 49.414732,11.287754 49.414732,11.287754 51.94893,3.4841975 L 51.005833,1.199154 48,-6.0837323 Z"
     inkscape:connector-curvature="0"
     style="clip-rule:evenodd;fill:#2b3339;fill-rule:evenodd;stroke:none;fill-opacity:1"
     transform="matrix(2.7860731,0,0,2.7860731,-37.731506,103.05723)" />
  <path
     id="path58"
     d="m 44.673625,-23.161141 h 6.65275 L 66.05747,13.39925 H 59.879914 L 48,-14.524464 36.120086,13.39925 H 29.94253 Z"
     inkscape:connector-curvature="0"
     style="clip-rule:evenodd;fill:#2b3339;fill-rule:evenodd;fill-opacity:1;stroke:none;"
     transform="matrix(2.7860731,0,0,2.7860731,-37.731506,103.05723)" />
</svg>
